;FLAVOR:Marlin
;TIME:5934
;Filament used: 11.247m
;Layer height: 0.2
;MINX:77.713
;MINY:55.223
;MINZ:0.2
;MAXX:177.287
;MAXY:154.776
;MAXZ:12
;TARGET_MACHINE.NAME:Flying Bear Ghost 4S
;Generated with Cura_SteamEngine 5.6.0
M140 S60
M105
M190 S60
M104 S230
M105
M109 S230
M82 ;absolute extrusion mode
M220 S100 ;reset feedrate
M221 S100 ;reset flowrate
G90 ;use absolute coordinates
M82 ;absolute extrusion mode
G28 ;home
G1 Z2 F1500 ;raise z
G92 E0 ;reset extruder

G1 X75 Y5 F5000 ;start position
G1 Z0.28 F1500 ;lower z
G1 E4 F500 ;prime the filament
G1 X180 E10 F500 ;1st line
G1 Y5.4 F5000
G1 X75 E20 F500 ;2nd line
G1 Z2 F1500 ;raise z
G92 E0 ;reset extruder
G92 E0
G92 E0
G1 F1500 E-6.5
;LAYER_COUNT:60
;LAYER:0
M107
;MESH:lamp_solid (Meshed).stl
G0 F9000 X130.868 Y110.007 Z0.2
;TYPE:WALL-INNER
G1 F1500 E0
G1 F4500 X131.142 Y110.315 E0.01371
G1 X131.311 Y110.634 E0.02572
G1 X131.4 Y110.973 E0.03738
G1 X131.398 Y113.074 E0.10725
G1 X131.326 Y113.475 E0.12081
G1 X131.119 Y113.82 E0.13419
G1 X130.861 Y114.082 E0.14642
G1 X130.544 Y114.268 E0.15864
G1 X130.062 Y114.376 E0.17507
G1 X122.897 Y114.374 E0.41338
G1 X122.666 Y114.337 E0.42116
G1 X122.279 Y114.178 E0.43508
G1 X121.96 Y113.916 E0.44881
G1 X121.81 Y113.716 E0.45712
G1 X121.654 Y113.399 E0.46887
G1 X121.601 Y113.048 E0.48068
G1 X121.6 Y103.377 E0.80234
G1 X116.777 Y103.377 E0.96275
G1 X116.32 Y103.217 E0.97886
G1 X115.978 Y102.947 E0.99335
G1 X115.778 Y102.662 E1.00493
G1 X115.643 Y102.326 E1.01697
G1 X115.607 Y102.127 E1.0237
G1 X115.601 Y99.826 E1.10023
G1 X115.677 Y99.516 E1.11085
G1 X115.788 Y99.275 E1.11967
G1 X115.94 Y99.061 E1.1284
G1 X116.128 Y98.881 E1.13706
G1 X116.452 Y98.688 E1.1496
G1 X116.894 Y98.58 E1.16474
G1 X121.6 Y98.577 E1.32126
G1 X121.6 Y96.977 E1.37447
G1 X121.633 Y96.669 E1.38478
G1 X121.793 Y96.266 E1.3992
G1 X122.006 Y95.97 E1.41133
G1 X122.306 Y95.76 E1.42351
G1 X122.637 Y95.624 E1.43541
G1 X122.934 Y95.578 E1.4454
G1 X130.091 Y95.579 E1.68345
G1 X130.5 Y95.648 E1.69724
G1 X130.884 Y95.89 E1.71234
G1 X131.047 Y96.046 E1.71984
G1 X131.293 Y96.397 E1.7341
G1 X131.399 Y96.819 E1.74857
G1 X131.4 Y99.019 E1.82174
G1 X131.294 Y99.364 E1.83375
G1 X131.173 Y99.593 E1.84236
G1 X130.873 Y99.944 E1.85772
G1 X130.522 Y100.127 E1.87089
G1 X130.154 Y100.227 E1.88357
G1 X125.4 Y100.227 E2.04169
G1 X125.4 Y109.727 E2.35766
G1 X130.154 Y109.727 E2.51578
G1 X130.522 Y109.827 E2.52846
G1 X130.868 Y110.007 E2.54143
G0 F9000 X130.828 Y113.805
G0 X122.316 Y113.877
G0 X122.316 Y113.708
G1 F4500 X122.107 Y113.429 E2.55303
G1 X122.002 Y113.05 E2.56611
G1 X122 Y102.977 E2.90114
G1 X116.903 Y102.977 E3.07067
G1 X116.665 Y102.92 E3.0788
G1 X116.344 Y102.733 E3.09116
G1 X116.109 Y102.469 E3.10292
G1 X116.005 Y102.084 E3.11618
G1 X116.002 Y99.906 E3.18862
G1 X116.091 Y99.559 E3.20054
G1 X116.341 Y99.223 E3.21447
G1 X116.64 Y99.043 E3.22607
G1 X116.888 Y98.977 E3.23461
G1 X122 Y98.977 E3.40463
G1 X122 Y96.818 E3.47644
G1 X122.138 Y96.469 E3.48893
G1 X122.284 Y96.277 E3.49695
G1 X122.542 Y96.087 E3.50761
G1 X122.834 Y95.981 E3.51794
G1 X130.106 Y95.982 E3.7598
G1 X130.46 Y96.088 E3.7721
G1 X130.599 Y96.175 E3.77755
G1 X130.843 Y96.437 E3.78946
G1 X130.965 Y96.713 E3.79949
G1 X131 Y96.933 E3.8069
G1 X131 Y98.866 E3.8712
G1 X130.954 Y99.129 E3.88008
G1 X130.757 Y99.482 E3.89352
G1 X130.467 Y99.712 E3.90583
G1 X130.267 Y99.791 E3.91298
G1 X130.025 Y99.827 E3.92112
G1 X125 Y99.827 E4.08825
G1 X125 Y110.127 E4.43083
G1 X130.108 Y110.127 E4.60073
G1 X130.373 Y110.198 E4.60985
G1 X130.615 Y110.337 E4.61913
G1 X130.816 Y110.547 E4.6288
G1 X130.968 Y110.872 E4.64073
G1 X131 Y111.097 E4.64829
G1 X131.001 Y113.073 E4.71402
G1 X130.95 Y113.293 E4.72153
G1 X130.833 Y113.532 E4.73038
G1 X130.498 Y113.865 E4.74609
G1 X130.125 Y113.977 E4.75904
G1 X122.927 Y113.975 E4.99845
G1 X122.601 Y113.895 E5.00961
G1 X122.316 Y113.708 E5.02095
G0 F9000 X122.316 Y113.877
G0 X130.424 Y113.877
G0 X130.424 Y113.403
G1 F4500 X130.22 Y113.536 E5.02905
G1 X130.076 Y113.573 E5.03399
G1 X122.931 Y113.574 E5.27164
G1 X122.713 Y113.505 E5.27924
G1 X122.48 Y113.278 E5.29006
G1 X122.404 Y113.054 E5.29793
G1 X122.4 Y102.243 E5.6575
G1 X122 Y102.577 E5.67484
G1 X116.922 Y102.573 E5.84373
G1 X116.71 Y102.503 E5.85116
G1 X116.476 Y102.271 E5.86212
G1 X116.401 Y102.025 E5.87067
G1 X116.4 Y99.944 E5.93989
G1 X116.454 Y99.726 E5.94736
G1 X116.545 Y99.584 E5.95296
G1 X116.693 Y99.46 E5.95939
G1 X116.954 Y99.378 E5.96849
G1 X122 Y99.377 E6.13632
G1 X122.4 Y99.777 E6.15513
G1 X122.4 Y96.88 E6.25149
G1 X122.483 Y96.672 E6.25893
G1 X122.702 Y96.455 E6.26919
G1 X122.919 Y96.382 E6.2768
G1 X130.039 Y96.378 E6.51362
G1 X130.298 Y96.455 E6.5226
G1 X130.479 Y96.614 E6.53062
G1 X130.6 Y96.951 E6.54253
G1 X130.599 Y98.968 E6.60961
G1 X130.403 Y99.273 E6.62167
G1 X130.09 Y99.421 E6.63318
G1 X124.6 Y99.427 E6.81578
G1 X124.6 Y110.527 E7.18497
G1 X130.113 Y110.527 E7.36833
G1 X130.329 Y110.624 E7.37621
G1 X130.49 Y110.779 E7.38364
G1 X130.6 Y111.091 E7.39465
G1 X130.595 Y113.06 E7.46013
G1 X130.524 Y113.271 E7.46754
G1 X130.424 Y113.403 E7.47305
G1 F1500 E0.97305
G0 F9000 X130.424 Y113.877
G0 X127.5 Y114.556
G0 X125.773 Y153.317
G0 X127.5 Y153.575
G1 F1500 E7.47305
G1 F4500 X131.785 Y153.385 E7.61571
G1 X136.061 Y152.814 E7.75919
G1 X140.248 Y151.873 E7.90192
G1 X144.332 Y150.568 E8.04452
G1 X148.292 Y148.901 E8.18743
G1 X152.091 Y146.892 E8.33036
G1 X155.702 Y144.554 E8.47344
G1 X159.088 Y141.908 E8.61637
G1 X162.249 Y138.952 E8.76031
G1 X165.086 Y135.781 E8.90183
G1 X167.697 Y132.291 E9.0468
G1 X169.938 Y128.658 E9.18877
G1 X171.876 Y124.792 E9.33261
G1 X173.451 Y120.802 E9.47528
G1 X174.657 Y116.721 E9.61682
G1 X175.515 Y112.482 E9.76067
G1 X175.992 Y108.191 E9.90426
G1 X176.086 Y103.944 E10.04555
G1 X175.801 Y99.626 E10.18948
G1 X175.135 Y95.351 E10.33339
G1 X174.098 Y91.181 E10.47631
G1 X172.696 Y87.117 E10.61929
G1 X170.937 Y83.183 E10.76262
G1 X168.85 Y79.443 E10.90507
G1 X166.438 Y75.897 E11.04771
G1 X163.703 Y72.556 E11.19132
G1 X160.693 Y69.48 E11.33446
G1 X157.444 Y66.698 E11.47672
G1 X153.937 Y64.196 E11.62001
G1 X150.226 Y62.019 E11.76311
G1 X146.343 Y60.181 E11.90599
G1 X142.3 Y58.686 E12.04936
G1 X138.157 Y57.56 E12.19216
G1 X133.932 Y56.806 E12.3349
G1 X129.657 Y56.426 E12.47765
G1 X125.344 Y56.426 E12.6211
G1 X121.067 Y56.806 E12.76392
G1 X116.842 Y57.561 E12.90667
G1 X112.7 Y58.687 E13.04943
G1 X108.656 Y60.182 E13.19283
G1 X104.773 Y62.02 E13.33572
G1 X101.062 Y64.197 E13.47882
G1 X97.575 Y66.686 E13.62131
G1 X94.306 Y69.481 E13.76436
G1 X91.298 Y72.555 E13.90741
G1 X88.562 Y75.897 E14.05106
G1 X86.149 Y79.444 E14.19375
G1 X84.062 Y83.184 E14.3362
G1 X82.3 Y87.125 E14.47978
G1 X80.9 Y91.186 E14.62265
G1 X79.863 Y95.358 E14.76563
G1 X79.202 Y99.589 E14.90806
G1 X78.914 Y103.909 E15.05207
G1 X79.009 Y108.193 E15.19459
G1 X79.48 Y112.448 E15.33697
G1 X80.335 Y116.687 E15.4808
G1 X81.55 Y120.803 E15.62354
G1 X83.122 Y124.784 E15.7659
G1 X85.061 Y128.653 E15.90984
G1 X87.306 Y132.296 E16.05217
G1 X89.882 Y135.742 E16.19526
G1 X92.752 Y138.952 E16.33848
G1 X95.913 Y141.909 E16.48245
G1 X99.281 Y144.543 E16.62465
G1 X102.872 Y146.871 E16.76699
G1 X106.709 Y148.901 E16.91137
G1 X110.669 Y150.569 E17.05429
G1 X114.753 Y151.874 E17.19689
G1 X118.94 Y152.815 E17.33963
G1 X123.216 Y153.385 E17.4831
G1 X127.5 Y153.575 E17.62573
G0 F9000 X127.5 Y153.975
G1 F4500 X131.82 Y153.783 E17.76956
G1 X136.131 Y153.208 E17.91421
G1 X140.353 Y152.26 E18.05813
G1 X144.471 Y150.943 E18.20193
G1 X148.464 Y149.263 E18.34601
G1 X152.294 Y147.237 E18.49012
G1 X155.935 Y144.88 E18.63438
G1 X159.349 Y142.212 E18.7785
G1 X162.535 Y139.232 E18.92359
G1 X165.396 Y136.034 E19.06631
G1 X168.028 Y132.516 E19.21244
G1 X170.287 Y128.853 E19.35558
G1 X172.242 Y124.955 E19.50062
G1 X173.83 Y120.933 E19.64444
G1 X175.046 Y116.817 E19.78719
G1 X175.911 Y112.544 E19.93219
G1 X176.392 Y108.218 E20.07696
G1 X176.487 Y103.935 E20.21945
G1 X176.199 Y99.582 E20.36455
G1 X175.527 Y95.272 E20.50963
G1 X174.482 Y91.068 E20.65371
G1 X173.069 Y86.97 E20.79789
G1 X171.295 Y83.003 E20.94242
G1 X169.191 Y79.232 E21.08605
G1 X166.759 Y75.658 E21.22983
G1 X164.002 Y72.289 E21.37462
G1 X160.967 Y69.187 E21.51896
G1 X157.691 Y66.383 E21.66239
G1 X154.155 Y63.86 E21.80686
G1 X150.414 Y61.665 E21.95112
G1 X146.498 Y59.812 E22.09522
G1 X142.422 Y58.305 E22.23975
G1 X138.245 Y57.169 E22.38373
G1 X133.985 Y56.409 E22.52765
G1 X129.674 Y56.026 E22.6716
G1 X125.326 Y56.026 E22.81622
G1 X121.014 Y56.41 E22.9602
G1 X116.754 Y57.17 E23.10413
G1 X112.578 Y58.306 E23.24807
G1 X108.501 Y59.813 E23.39264
G1 X104.585 Y61.666 E23.53673
G1 X100.844 Y63.861 E23.68099
G1 X97.328 Y66.37 E23.82466
G1 X94.032 Y69.189 E23.96891
G1 X90.999 Y72.288 E24.11313
G1 X88.241 Y75.658 E24.25797
G1 X85.808 Y79.233 E24.4018
G1 X83.704 Y83.004 E24.54543
G1 X81.927 Y86.978 E24.69021
G1 X80.516 Y91.073 E24.83427
G1 X79.471 Y95.279 E24.97842
G1 X78.804 Y99.545 E25.12203
G1 X78.513 Y103.9 E25.2672
G1 X78.609 Y108.219 E25.41089
G1 X79.085 Y112.509 E25.55445
G1 X79.946 Y116.784 E25.69949
G1 X81.171 Y120.934 E25.84341
G1 X82.756 Y124.947 E25.98691
G1 X84.711 Y128.848 E26.13204
G1 X86.975 Y132.522 E26.27558
G1 X89.572 Y135.996 E26.41984
G1 X92.465 Y139.232 E26.56421
G1 X95.652 Y142.213 E26.70936
G1 X99.049 Y144.869 E26.85278
G1 X102.669 Y147.216 E26.99627
G1 X106.537 Y149.263 E27.14182
G1 X110.53 Y150.945 E27.28593
G1 X114.648 Y152.261 E27.42972
G1 X118.869 Y153.209 E27.57361
G1 X123.181 Y153.783 E27.71829
G1 X127.5 Y153.975 E27.86209
G0 F9000 X127.5 Y154.376
G1 F4500 X131.855 Y154.182 E28.00708
G1 X136.202 Y153.602 E28.15294
G1 X140.458 Y152.646 E28.29802
G1 X144.609 Y151.319 E28.44297
G1 X148.635 Y149.625 E28.58824
G1 X152.497 Y147.582 E28.73356
G1 X156.167 Y145.206 E28.87897
G1 X159.609 Y142.516 E29.02427
G1 X162.821 Y139.512 E29.17054
G1 X165.706 Y136.288 E29.31444
G1 X168.359 Y132.742 E29.46173
G1 X170.637 Y129.048 E29.60608
G1 X172.607 Y125.118 E29.7523
G1 X174.209 Y121.063 E29.89731
G1 X175.435 Y116.914 E30.0412
G1 X176.306 Y112.606 E30.18739
G1 X176.791 Y108.245 E30.33333
G1 X176.887 Y103.927 E30.47698
G1 X176.597 Y99.538 E30.62328
G1 X175.92 Y95.192 E30.76957
G1 X174.866 Y90.954 E30.91482
G1 X173.441 Y86.823 E31.06016
G1 X171.653 Y82.824 E31.20586
G1 X169.531 Y79.022 E31.35068
G1 X167.079 Y75.418 E31.49566
G1 X164.3 Y72.022 E31.64161
G1 X161.24 Y68.895 E31.78713
G1 X157.937 Y66.068 E31.93173
G1 X154.373 Y63.524 E32.07737
G1 X150.601 Y61.311 E32.22282
G1 X146.654 Y59.443 E32.36806
G1 X142.544 Y57.924 E32.5138
G1 X138.333 Y56.778 E32.65895
G1 X134.038 Y56.012 E32.80406
G1 X129.692 Y55.626 E32.94917
G1 X125.308 Y55.626 E33.09499
G1 X120.961 Y56.013 E33.24014
G1 X116.666 Y56.779 E33.38525
G1 X112.456 Y57.924 E33.53036
G1 X108.345 Y59.444 E33.67614
G1 X104.398 Y61.312 E33.82138
G1 X100.626 Y63.525 E33.96683
G1 X97.081 Y66.055 E34.11169
G1 X93.759 Y68.896 E34.25707
G1 X90.701 Y72.021 E34.40249
G1 X87.921 Y75.418 E34.54849
G1 X85.468 Y79.023 E34.69352
G1 X83.346 Y82.825 E34.83834
G1 X81.555 Y86.831 E34.98429
G1 X80.132 Y90.959 E35.12951
G1 X79.078 Y95.199 E35.27483
G1 X78.406 Y99.501 E35.41965
G1 X78.113 Y103.891 E35.56598
G1 X78.21 Y108.246 E35.71087
G1 X78.689 Y112.571 E35.8556
G1 X79.557 Y116.88 E36.00179
G1 X80.792 Y121.064 E36.14689
G1 X82.391 Y125.11 E36.29159
G1 X84.361 Y129.043 E36.43789
G1 X86.644 Y132.747 E36.58261
G1 X89.262 Y136.249 E36.72804
G1 X92.179 Y139.512 E36.87361
G1 X95.392 Y142.517 E37.01993
G1 X98.816 Y145.195 E37.16451
G1 X102.467 Y147.562 E37.30923
G1 X106.366 Y149.625 E37.45594
G1 X110.392 Y151.32 E37.60123
G1 X114.543 Y152.647 E37.74618
G1 X118.799 Y153.603 E37.89126
G1 X123.146 Y154.182 E38.03712
G1 X127.5 Y154.376 E38.18208
G0 F9000 X127.5 Y154.776
;TYPE:WALL-OUTER
G1 F4500 X131.891 Y154.581 E38.32827
G1 X136.272 Y153.996 E38.47527
G1 X140.563 Y153.032 E38.62155
G1 X144.748 Y151.695 E38.76767
G1 X148.807 Y149.987 E38.91414
G1 X152.699 Y147.928 E39.06059
G1 X156.399 Y145.532 E39.2072
G1 X159.869 Y142.82 E39.35368
G1 X163.107 Y139.792 E39.50113
G1 X166.016 Y136.542 E39.6462
G1 X168.69 Y132.967 E39.79469
G1 X170.987 Y129.243 E39.94022
G1 X172.973 Y125.282 E40.08759
G1 X174.587 Y121.193 E40.2338
G1 X175.823 Y117.01 E40.37888
G1 X176.702 Y112.668 E40.52622
G1 X177.191 Y108.271 E40.67337
G1 X177.287 Y103.918 E40.81818
G1 X176.995 Y99.494 E40.96565
G1 X176.312 Y95.113 E41.11312
G1 X175.25 Y90.84 E41.25956
G1 X173.813 Y86.676 E41.40607
G1 X172.011 Y82.644 E41.55296
G1 X169.872 Y78.812 E41.69893
G1 X167.4 Y75.178 E41.84511
G1 X164.598 Y71.755 E41.99224
G1 X161.514 Y68.603 E42.13891
G1 X158.184 Y65.752 E42.28471
G1 X154.591 Y63.188 E42.43152
G1 X150.788 Y60.957 E42.57817
G1 X146.809 Y59.074 E42.72458
G1 X142.666 Y57.542 E42.8715
G1 X138.421 Y56.388 E43.01781
G1 X134.091 Y55.615 E43.16411
G1 X129.71 Y55.226 E43.31039
G1 X125.29 Y55.226 E43.4574
G1 X120.908 Y55.616 E43.60372
G1 X116.578 Y56.389 E43.75002
G1 X112.334 Y57.543 E43.8963
G1 X108.19 Y59.075 E44.04325
G1 X104.211 Y60.958 E44.18966
G1 X100.408 Y63.189 E44.33631
G1 X96.835 Y65.739 E44.48231
G1 X93.485 Y68.604 E44.62892
G1 X90.403 Y71.754 E44.77549
G1 X87.6 Y75.178 E44.92267
G1 X85.127 Y78.813 E45.0689
G1 X82.988 Y82.645 E45.21486
G1 X81.183 Y86.684 E45.362
G1 X79.748 Y90.845 E45.5084
G1 X78.686 Y95.12 E45.65491
G1 X78.008 Y99.457 E45.80091
G1 X77.713 Y103.882 E45.94841
G1 X77.81 Y108.272 E46.09446
G1 X78.293 Y112.633 E46.24039
G1 X79.169 Y116.976 E46.38775
G1 X80.414 Y121.194 E46.53402
G1 X82.025 Y125.274 E46.67992
G1 X84.011 Y129.238 E46.82739
G1 X86.313 Y132.972 E46.97328
G1 X88.952 Y136.503 E47.1199
G1 X91.893 Y139.792 E47.26665
G1 X95.132 Y142.821 E47.41415
G1 X98.584 Y145.521 E47.55991
G1 X102.264 Y147.907 E47.70578
G1 X106.194 Y149.987 E47.85367
G1 X110.253 Y151.696 E48.00015
G1 X114.438 Y153.033 E48.14628
G1 X118.729 Y153.997 E48.29255
G1 X123.11 Y154.581 E48.43956
G1 X127.5 Y154.776 E48.58571
G1 F1500 E42.08571
G0 F9000 X127.5 Y154.076
G0 X123.234 Y153.185
G0 X123.234 Y114.556
G0 X122.882 Y113.877
G0 X122.882 Y113.14
G1 F1500 E48.58571
G1 F4500 X122.805 Y113.026 E48.59029
G1 X122.8 Y102.977 E48.92452
G1 F3991.1 X122.749 Y102.064 E48.95881
G1 F3592.8 X122.75 Y99.977 E49.04575
G1 F4000 X122.8 Y98.977 E49.08322
G1 F4500 X122.804 Y96.933 E49.1512
G1 X122.856 Y96.837 E49.15483
G1 X122.948 Y96.777 E49.15848
G1 X130.038 Y96.78 E49.3943
G1 X130.127 Y96.821 E49.39756
G1 X130.2 Y96.959 E49.40275
G1 X130.198 Y98.861 E49.46601
G1 X130.11 Y98.995 E49.47134
G1 X130.03 Y99.025 E49.47418
G1 X124.2 Y99.027 E49.66809
G1 X124.2 Y110.927 E50.06389
G1 X130.03 Y110.929 E50.25779
G1 X130.135 Y110.978 E50.26165
G1 X130.196 Y111.082 E50.26566
G1 X130.199 Y113.005 E50.32962
G1 X130.142 Y113.119 E50.33386
G1 X130.05 Y113.177 E50.33747
G1 X122.96 Y113.174 E50.57329
G1 X122.882 Y113.14 E50.57612
G1 F1500 E44.07612
G0 F9000 X122.882 Y113.877
G0 X122.172 Y113.805
G0 X121.428 Y103.549
G0 X116.172 Y102.805
G0 X116.1 Y102.096
G0 X116.838 Y102.096
G1 F1500 E50.57612
G1 F4500 X116.802 Y102.01 E50.57922
G1 X116.803 Y99.938 E50.64813
G1 X116.915 Y99.779 E50.6546
G1 X122 Y99.777 E50.82373
G1 F4000 X122.25 Y99.977 E50.83571
G1 F3592.8 X122.249 Y102.021 E50.92086
G1 F3991.1 X122 Y102.177 E50.93188
G1 F4500 X116.951 Y102.172 E51.09981
G1 X116.838 Y102.096 E51.10434
G1 F1500 E44.60434
G0 F9000 X116.1 Y102.096
G0 X116.172 Y102.805
G0 X117.001 Y103.558
G0 X123.234 Y153.185
G0 X127.5 Y153.475
G0 X127.5 Y153.214
;TYPE:SKIN
G1 F1500 E51.10434
G1 F4500 X123.255 Y153.025 E51.24567
G1 X118.994 Y152.456 E51.38865
G1 X114.843 Y151.525 E51.53014
G1 X110.798 Y150.233 E51.67137
G1 X106.866 Y148.575 E51.8133
G1 X103.05 Y146.557 E51.95688
G1 X99.499 Y144.256 E52.09761
G1 X96.145 Y141.632 E52.23925
G1 X93.006 Y138.696 E52.3822
G1 X90.161 Y135.512 E52.52422
G1 X87.602 Y132.092 E52.66629
G1 X85.382 Y128.49 E52.80702
G1 X83.445 Y124.623 E52.95087
G1 X81.891 Y120.689 E53.09155
G1 X80.688 Y116.611 E53.23297
G1 X79.834 Y112.377 E53.37663
G1 X79.369 Y108.17 E53.5174
G1 X79.275 Y103.932 E53.65839
G1 X79.562 Y99.616 E53.80226
G1 X80.217 Y95.43 E53.94318
G1 X81.246 Y91.289 E54.0851
G1 X82.635 Y87.261 E54.22681
G1 X84.391 Y83.331 E54.36998
G1 X86.455 Y79.634 E54.51081
