;FLAVOR:Marlin
;TIME:5441
;Filament used: 5.63232m
;Layer height: 0.2
;MINX:61.55
;MINY:56.05
;MINZ:0.2
;MAXX:193.449
;MAXY:153.92
;MAXZ:8.4
;TARGET_MACHINE.NAME:Flying Bear Ghost 4S
;Generated with Cura_SteamEngine 5.6.0
M140 S60
M105
M190 S60
M104 S200
M105
M109 S200
M82 ;absolute extrusion mode
M220 S100 ;reset feedrate
M221 S100 ;reset flowrate
G90 ;use absolute coordinates
M82 ;absolute extrusion mode
G28 ;home
G1 Z2 F1500 ;raise z
G92 E0 ;reset extruder

G1 X75 Y5 F5000 ;start position
G1 Z0.28 F1500 ;lower z
G1 E4 F500 ;prime the filament
G1 X180 E10 F500 ;1st line
G1 Y5.4 F5000
G1 X75 E20 F500 ;2nd line
G1 Z2 F1500 ;raise z
G92 E0 ;reset extruder
G92 E0
G92 E0
G1 F1500 E-6.5
;LAYER_COUNT:42
;LAYER:0
M107
G0 F9000 X66.182 Y60.714 Z0.2
;TYPE:SKIRT
G1 F1500 E0
G1 F1800 X68.634 Y58.7 E0.13192
G1 X71.434 Y57.207 E0.26385
G1 X74.385 Y56.317 E0.39199
G1 X76.766 Y56.08 E0.49147
G1 X177.499 Y56.05 E4.67947
G1 X180.565 Y56.3 E4.80736
G1 X183.625 Y57.236 E4.9404
G1 X186.368 Y58.7 E5.06966
G1 X188.801 Y60.697 E5.20053
G1 X190.8 Y63.132 E5.33151
G1 X192.295 Y65.931 E5.46343
G1 X193.184 Y68.885 E5.59169
G1 X193.446 Y71.924 E5.7185
G1 X193.402 Y80.216 E6.06325
G1 X193.26 Y81.48 E6.11613
G1 X192.564 Y83.558 E6.20724
G1 X191.95 Y84.543 E6.2555
G1 X191.955 Y125.437 E7.95567
G1 X192.586 Y126.496 E8.00692
G1 X193.29 Y128.587 E8.09865
G1 X193.449 Y130.641 E8.1843
G1 X193.42 Y138.736 E8.52086
G1 X193.183 Y141.115 E8.62025
G1 X192.294 Y144.078 E8.74887
G1 X190.805 Y146.865 E8.88024
G1 X188.812 Y149.292 E9.0108
G1 X186.366 Y151.3 E9.14237
G1 X183.566 Y152.793 E9.2743
G1 X180.615 Y153.683 E9.40244
G1 X178.234 Y153.92 E9.50192
G1 X76.766 Y153.92 E13.72047
G1 X74.385 Y153.683 E13.81995
G1 X71.435 Y152.793 E13.94806
G1 X68.634 Y151.3 E14.08002
G1 X66.185 Y149.289 E14.21177
G1 X64.197 Y146.868 E14.34201
G1 X62.706 Y144.078 E14.47353
G1 X61.817 Y141.115 E14.60214
G1 X61.58 Y138.736 E14.70154
G1 X61.578 Y129.993 E15.06503
G1 X61.713 Y128.577 E15.12416
G1 X62.439 Y126.42 E15.21879
G1 X63.05 Y125.447 E15.26655
G1 X63.046 Y84.555 E16.96664
G1 X62.424 Y83.529 E17.01653
G1 X61.711 Y81.396 E17.11003
G1 X61.55 Y79.318 E17.19668
G1 X61.582 Y71.217 E17.53349
G1 X61.816 Y68.883 E17.63101
G1 X62.705 Y65.932 E17.75914
G1 X64.206 Y63.121 E17.89163
G1 X66.182 Y60.714 E18.0211
G0 F9000 X66.54 Y61.066
G1 F1800 X68.912 Y59.118 E18.14871
G1 X71.623 Y57.672 E18.27645
G1 X74.486 Y56.809 E18.40077
G1 X76.766 Y56.58 E18.49604
G1 X177.499 Y56.55 E22.68403
G1 X180.47 Y56.794 E22.80797
G1 X183.433 Y57.7 E22.93678
G1 X186.09 Y59.118 E23.062
G1 X188.446 Y61.052 E23.18872
G1 X190.38 Y63.408 E23.31545
G1 X191.83 Y66.123 E23.44342
G1 X192.691 Y68.981 E23.56751
G1 X192.946 Y71.922 E23.69024
G1 X192.905 Y80.16 E24.03274
G1 X192.769 Y81.372 E24.08345
G1 X192.109 Y83.343 E24.16987
G1 X191.45 Y84.4 E24.22165
G1 X191.455 Y125.576 E25.93355
G1 X192.129 Y126.707 E25.98829
G1 X192.796 Y128.687 E26.07515
G1 X192.95 Y130.68 E26.15826
G1 X192.92 Y138.734 E26.49311
G1 X192.691 Y141.014 E26.58838
G1 X191.829 Y143.886 E26.71304
G1 X190.385 Y146.589 E26.84045
G1 X188.457 Y148.937 E26.96676
G1 X186.088 Y150.882 E27.0942
G1 X183.377 Y152.328 E27.22194
G1 X180.514 Y153.191 E27.34626
G1 X178.234 Y153.42 E27.44153
G1 X76.766 Y153.42 E31.66008
G1 X74.486 Y153.191 E31.75534
G1 X71.624 Y152.328 E31.87962
G1 X68.912 Y150.882 E32.0074
G1 X66.54 Y148.934 E32.13501
G1 X64.617 Y146.592 E32.261
G1 X63.171 Y143.886 E32.38856
G1 X62.31 Y141.019 E32.51301
G1 X62.078 Y138.687 E32.61044
G1 X62.076 Y130.041 E32.9699
G1 X62.206 Y128.68 E33.02674
G1 X62.894 Y126.635 E33.11645
G1 X63.55 Y125.59 E33.16774
G1 X63.546 Y84.415 E34.8796
G1 X62.88 Y83.316 E34.93303
G1 X62.204 Y81.294 E35.02167
G1 X62.05 Y79.32 E35.10398
G1 X62.08 Y71.267 E35.43879
G1 X62.309 Y68.979 E35.53439
G1 X63.17 Y66.124 E35.65837
G1 X64.624 Y63.401 E35.78671
G1 X66.54 Y61.066 E35.91228
G0 F9000 X66.898 Y61.418
G1 F1800 X65.04 Y63.682 E36.03405
G1 X63.635 Y66.314 E36.15809
G1 X62.802 Y69.075 E36.27799
G1 X62.578 Y71.317 E36.37166
G1 X62.55 Y79.322 E36.70448
G1 X62.697 Y81.192 E36.78246
G1 X63.336 Y83.103 E36.86623
G1 X64.046 Y84.275 E36.9232
G1 X64.05 Y125.735 E38.64691
G1 X63.349 Y126.852 E38.70174
G1 X62.698 Y128.785 E38.78654
G1 X62.574 Y130.088 E38.84096
G1 X62.578 Y138.687 E39.19846
G1 X62.802 Y140.918 E39.29168
G1 X63.636 Y143.694 E39.41219
G1 X65.037 Y146.316 E39.53579
G1 X66.895 Y148.579 E39.65752
G1 X69.19 Y150.464 E39.78099
G1 X71.813 Y151.863 E39.90459
G1 X74.582 Y152.698 E40.02483
G1 X76.816 Y152.922 E40.11817
G1 X178.184 Y152.922 E44.33256
G1 X180.418 Y152.698 E44.42591
G1 X183.188 Y151.863 E44.54619
G1 X185.81 Y150.464 E44.66975
G1 X188.102 Y148.582 E44.79305
G1 X189.965 Y146.313 E44.9151
G1 X191.364 Y143.694 E45.03855
G1 X192.198 Y140.918 E45.15906
G1 X192.422 Y138.684 E45.2524
G1 X192.45 Y130.678 E45.58526
G1 X192.303 Y128.791 E45.66395
G1 X191.671 Y126.914 E45.74629
G1 X190.955 Y125.713 E45.80442
G1 X190.95 Y84.257 E47.52796
G1 X191.654 Y83.128 E47.58328
G1 X192.278 Y81.264 E47.665
G1 X192.408 Y80.104 E47.71353
G1 X192.446 Y71.92 E48.05378
G1 X192.198 Y69.077 E48.17243
G1 X191.365 Y66.315 E48.29237
G1 X189.96 Y63.684 E48.41637
G1 X188.091 Y61.407 E48.53885
G1 X185.814 Y59.538 E48.66132
G1 X183.239 Y58.163 E48.78268
G1 X180.375 Y57.288 E48.90719
G1 X177.499 Y57.05 E49.02717
G1 X76.816 Y57.078 E53.21308
G1 X74.582 Y57.302 E53.30642
G1 X71.812 Y58.137 E53.4267
G1 X69.19 Y59.536 E53.55026
G1 X66.898 Y61.418 E53.67356
G0 F9000 X67.253 Y61.773
G1 F1800 X69.468 Y59.954 E53.79272
G1 X72.001 Y58.602 E53.91209
G1 X74.678 Y57.795 E54.02834
G1 X76.866 Y57.576 E54.11976
G1 X177.499 Y57.55 E58.30359
G1 X180.28 Y57.782 E58.41961
G1 X183.047 Y58.627 E58.5399
G1 X185.533 Y59.954 E58.65706
G1 X187.736 Y61.762 E58.77554
G1 X189.544 Y63.965 E58.89403
G1 X190.9 Y66.505 E59.01374
G1 X191.705 Y69.173 E59.1296
G1 X191.946 Y71.918 E59.24416
G1 X191.911 Y80.048 E59.58217
G1 X191.787 Y81.156 E59.62852
G1 X191.198 Y82.915 E59.70564
G1 X190.45 Y84.115 E59.76443
G1 X190.455 Y125.895 E61.50144
G1 X190.624 Y126.135 E61.51365
G1 X191.214 Y127.125 E61.56156
G1 X191.81 Y128.895 E61.63921
G1 X191.95 Y130.676 E61.71348
G1 X191.924 Y138.634 E62.04434
G1 X191.705 Y140.822 E62.13576
G1 X190.899 Y143.502 E62.25211
G1 X189.545 Y146.037 E62.3716
G1 X187.747 Y148.227 E62.4894
G1 X185.532 Y150.046 E62.60856
G1 X182.999 Y151.398 E62.72794
G1 X180.322 Y152.205 E62.84418
G1 X178.134 Y152.424 E62.9356
G1 X76.866 Y152.424 E67.14583
G1 X74.678 Y152.205 E67.23726
G1 X72.002 Y151.398 E67.35346
G1 X69.468 Y150.046 E67.47287
G1 X67.25 Y148.224 E67.59221
G1 X65.457 Y146.04 E67.70969
G1 X64.101 Y143.502 E67.82932
G1 X63.295 Y140.822 E67.94567
G1 X63.076 Y138.637 E68.03697
G1 X63.072 Y130.136 E68.3904
G1 X63.191 Y128.89 E68.44244
G1 X63.804 Y127.069 E68.52232
G1 X64.55 Y125.88 E68.58068
G1 X64.546 Y84.135 E70.31623
G1 X63.792 Y82.89 E70.37675
G1 X63.19 Y81.09 E70.45566
G1 X63.05 Y79.324 E70.52931
G1 X63.076 Y71.367 E70.86012
G1 X63.295 Y69.171 E70.95188
G1 X64.1 Y66.504 E71.0677
G1 X65.458 Y63.96 E71.18759
G1 X67.253 Y61.773 E71.30522
G0 F9000 X67.608 Y62.128
G1 F1800 X69.746 Y60.372 E71.42024
G1 X72.191 Y59.067 E71.53547
G1 X74.774 Y58.288 E71.64764
G1 X76.916 Y58.074 E71.73713
G1 X177.499 Y58.05 E75.91889
G1 X180.185 Y58.276 E76.03095
G1 X182.855 Y59.091 E76.14702
G1 X185.255 Y60.372 E76.26012
G1 X187.381 Y62.117 E76.37447
G1 X189.126 Y64.243 E76.48882
G1 X190.435 Y66.695 E76.60438
G1 X191.212 Y69.269 E76.71616
G1 X191.446 Y71.916 E76.82664
G1 X191.414 Y79.992 E77.1624
G1 X191.296 Y81.048 E77.20658
G1 X190.742 Y82.702 E77.2791
G1 X189.95 Y83.973 E77.34136
G1 X189.955 Y126.054 E79.09089
G1 X190.194 Y126.391 E79.10806
G1 X190.757 Y127.336 E79.1538
G1 X191.317 Y128.999 E79.22675
G1 X191.45 Y130.674 E79.29661
G1 X191.426 Y138.584 E79.62547
G1 X191.212 Y140.726 E79.71497
G1 X190.434 Y143.31 E79.82716
G1 X189.125 Y145.761 E79.94268
G1 X187.392 Y147.872 E80.05624
G1 X185.254 Y149.628 E80.17126
G1 X182.809 Y150.933 E80.28649
G1 X180.226 Y151.712 E80.39865
G1 X178.084 Y151.926 E80.48815
G1 X76.916 Y151.926 E84.69423
G1 X74.774 Y151.712 E84.78372
G1 X72.191 Y150.933 E84.89589
G1 X69.746 Y149.628 E85.01111
G1 X67.605 Y147.869 E85.12631
G1 X65.877 Y145.764 E85.23954
G1 X64.566 Y143.31 E85.35521
G1 X63.788 Y140.726 E85.46741
G1 X63.574 Y138.587 E85.55678
G1 X63.57 Y130.183 E85.90618
G1 X63.683 Y128.995 E85.95579
G1 X64.259 Y127.286 E86.03077
G1 X65.05 Y126.025 E86.09266
G1 X65.046 Y83.953 E87.84181
G1 X64.876 Y83.714 E87.854
G1 X64.248 Y82.677 E87.90441
G1 X63.683 Y80.988 E87.97845
G1 X63.55 Y79.326 E88.04777
G1 X63.574 Y71.417 E88.37659
G1 X63.788 Y69.269 E88.46633
G1 X64.566 Y66.692 E88.57825
G1 X65.876 Y64.238 E88.6939
G1 X67.608 Y62.128 E88.8074
G0 F9000 X67.966 Y62.48
G1 F1800 X66.294 Y64.518 E88.91699
G1 X65.031 Y66.883 E89.02846
G1 X64.281 Y69.367 E89.13634
G1 X64.072 Y71.467 E89.22408
G1 X64.05 Y79.327 E89.55086
G1 X64.176 Y80.886 E89.61589
G1 X64.704 Y82.464 E89.68507
G1 X65.304 Y83.455 E89.73323
G1 X65.546 Y83.792 E89.75048
G1 X65.55 Y126.17 E91.51235
G1 X64.714 Y127.503 E91.57777
G1 X64.176 Y129.1 E91.64783
G1 X64.068 Y130.231 E91.69507
G1 X64.072 Y138.537 E92.04039
G1 X64.281 Y140.63 E92.12784
G1 X65.031 Y143.118 E92.23588
G1 X66.295 Y145.484 E92.3474
G1 X67.963 Y147.517 E92.45673
G1 X70.024 Y149.21 E92.56762
G1 X72.381 Y150.468 E92.6787
G1 X74.87 Y151.219 E92.78678
G1 X76.966 Y151.428 E92.87436
G1 X178.034 Y151.428 E97.07628
G1 X180.13 Y151.219 E97.16385
G1 X182.619 Y150.468 E97.27194
G1 X184.976 Y149.21 E97.38302
G1 X187.037 Y147.517 E97.49391
G1 X188.705 Y145.485 E97.6032
G1 X189.969 Y143.118 E97.71476
G1 X190.719 Y140.63 E97.8228
G1 X190.928 Y138.534 E97.91037
G1 X190.95 Y130.673 E98.2372
G1 X190.824 Y129.103 E98.30268
G1 X190.3 Y127.547 E98.37094
G1 X189.764 Y126.647 E98.41449
G1 X189.455 Y126.215 E98.43657
G1 X189.45 Y83.809 E100.19961
G1 X189.554 Y83.668 E100.2069
G1 X190.287 Y82.486 E100.26472
G1 X190.805 Y80.94 E100.33251
G1 X190.917 Y79.937 E100.37447
G1 X190.946 Y71.914 E100.70803
G1 X190.719 Y69.367 E100.81434
G1 X189.969 Y66.883 E100.92221
G1 X188.71 Y64.524 E101.03338
G1 X187.026 Y62.472 E101.14375
G1 X184.974 Y60.788 E101.25411
G1 X182.663 Y59.555 E101.36301
G1 X180.09 Y58.77 E101.47485
G1 X177.499 Y58.55 E101.58296
G1 X76.966 Y58.572 E105.76264
G1 X74.87 Y58.781 E105.85021
G1 X72.381 Y59.532 E105.9583
G1 X70.024 Y60.79 E106.06937
G1 X67.966 Y62.48 E106.18009
G0 F9000 X68.324 Y62.832
G1 F1800 X66.71 Y64.799 E106.28587
G1 X65.497 Y67.071 E106.39295
G1 X64.774 Y69.465 E106.49692
G1 X64.57 Y71.516 E106.58261
G1 X64.55 Y79.328 E106.9074
G1 X64.669 Y80.784 E106.96814
G1 X65.16 Y82.251 E107.03245
G1 X65.732 Y83.196 E107.07838
G1 X66.046 Y83.629 E107.10061
G1 X66.05 Y126.352 E108.87683
G1 X65.878 Y126.586 E108.8889
G1 X65.17 Y127.718 E108.94441
G1 X64.669 Y129.205 E109.00965
G1 X64.566 Y130.279 E109.05451
G1 X64.57 Y138.487 E109.39576
G1 X64.774 Y140.534 E109.48128
G1 X65.496 Y142.926 E109.58516
G1 X66.713 Y145.205 E109.69257
G1 X68.321 Y147.165 E109.79798
G1 X70.302 Y148.792 E109.90455
G1 X72.571 Y150.003 E110.01148
G1 X74.966 Y150.726 E110.11549
G1 X77.016 Y150.93 E110.20114
G1 X177.984 Y150.93 E114.39891
G1 X180.034 Y150.726 E114.48456
G1 X182.429 Y150.003 E114.58857
G1 X184.698 Y148.792 E114.69549
G1 X186.679 Y147.165 E114.80207
G1 X188.287 Y145.205 E114.90747
G1 X189.504 Y142.926 E115.01489
G1 X190.226 Y140.534 E115.11877
G1 X190.43 Y138.484 E115.20442
G1 X190.45 Y130.672 E115.5292
G1 X190.331 Y129.207 E115.59031
G1 X189.843 Y127.758 E115.65388
G1 X189.334 Y126.903 E115.69525
G1 X188.955 Y126.377 E115.7222
G1 X188.95 Y83.645 E117.49879
G1 X189.151 Y83.372 E117.51289
G1 X189.831 Y82.273 E117.56662
G1 X190.314 Y80.832 E117.6298
G1 X190.42 Y79.882 E117.66954
G1 X190.446 Y71.912 E118.0009
G1 X190.226 Y69.465 E118.10304
G1 X189.503 Y67.071 E118.20701
G1 X188.292 Y64.802 E118.31394
G1 X186.671 Y62.827 E118.42017
G1 X184.696 Y61.206 E118.5264
G1 X182.471 Y60.019 E118.63124
G1 X179.995 Y59.264 E118.73886
G1 X177.499 Y59.05 E118.84301
G1 X77.016 Y59.07 E123.02061
G1 X74.966 Y59.274 E123.10626
G1 X72.571 Y59.997 E123.21027
G1 X70.302 Y61.208 E123.3172
G1 X68.324 Y62.832 E123.4236
G0 F9000 X68.682 Y63.184
G1 F1800 X67.126 Y65.08 E123.52558
G1 X65.963 Y67.259 E123.62826
G1 X65.267 Y69.563 E123.72833
G1 X65.068 Y71.565 E123.81197
G1 X65.05 Y79.329 E124.13476
G1 X65.162 Y80.682 E124.19121
G1 X65.616 Y82.038 E124.25066
G1 X66.16 Y82.937 E124.29434
G1 X66.546 Y83.467 E124.3216
G1 X66.55 Y126.516 E126.11137
G1 X66.281 Y126.882 E126.13026
G1 X65.626 Y127.932 E126.18171
G1 X65.162 Y129.31 E126.24216
G1 X65.064 Y130.327 E126.28464
G1 X65.068 Y138.437 E126.62181
G1 X65.267 Y140.436 E126.70533
G1 X65.962 Y142.738 E126.8053
G1 X67.129 Y144.924 E126.90833
G1 X68.679 Y146.813 E127.00992
G1 X70.58 Y148.374 E127.11218
G1 X72.759 Y149.537 E127.21487
G1 X75.064 Y150.233 E127.31498
G1 X77.065 Y150.432 E127.39858
G1 X177.935 Y150.432 E131.59227
G1 X179.936 Y150.233 E131.67587
G1 X182.241 Y149.537 E131.77597
G1 X184.42 Y148.374 E131.87866
G1 X186.321 Y146.813 E131.98093
G1 X187.871 Y144.924 E132.08252
G1 X189.038 Y142.738 E132.18554
G1 X189.733 Y140.436 E132.28551
G1 X189.932 Y138.435 E132.36911
G1 X189.95 Y130.671 E132.69191
G1 X189.838 Y129.311 E132.74864
G1 X189.386 Y127.969 E132.80751
G1 X188.904 Y127.159 E132.8467
G1 X188.455 Y126.539 E132.87853
G1 X188.45 Y83.481 E134.66867
G1 X188.748 Y83.076 E134.68957
G1 X189.375 Y82.06 E134.73921
G1 X189.823 Y80.724 E134.79779
G1 X189.923 Y79.827 E134.83532
G1 X189.946 Y71.911 E135.16443
G1 X189.733 Y69.563 E135.26245
G1 X189.037 Y67.259 E135.36251
G1 X187.874 Y65.08 E135.4652
G1 X186.316 Y63.182 E135.56729
G1 X184.418 Y61.624 E135.66938
G1 X182.279 Y60.483 E135.77017
G1 X179.9 Y59.758 E135.87357
G1 X177.499 Y59.55 E135.97377
G1 X77.065 Y59.568 E140.14933
G1 X75.064 Y59.767 E140.23293
G1 X72.759 Y60.463 E140.33303
G1 X70.58 Y61.626 E140.43572
G1 X68.682 Y63.184 E140.53781
G0 F9000 X69.037 Y63.539
G1 F1800 X67.544 Y65.358 E140.63565
G1 X66.429 Y67.447 E140.7341
G1 X65.76 Y69.661 E140.83025
G1 X65.566 Y71.614 E140.91185
G1 X65.55 Y79.33 E141.23264
G1 X65.655 Y80.58 E141.2848
G1 X66.072 Y81.825 E141.33938
G1 X66.588 Y82.678 E141.38083
G1 X67.046 Y83.303 E141.41305
G1 X67.05 Y126.68 E143.21645
G1 X66.684 Y127.178 E143.24215
G1 X66.081 Y128.148 E143.28963
G1 X65.655 Y129.414 E143.34517
G1 X65.562 Y130.375 E143.38531
G1 X65.566 Y138.388 E143.71845
G1 X65.76 Y140.338 E143.79992
G1 X66.428 Y142.55 E143.89599
G1 X67.545 Y144.643 E143.99462
G1 X69.037 Y146.461 E144.0924
G1 X70.858 Y147.956 E144.19035
G1 X72.947 Y149.071 E144.2888
G1 X75.162 Y149.74 E144.385
G1 X77.114 Y149.934 E144.46655
G1 X177.886 Y149.934 E148.65616
G1 X179.838 Y149.74 E148.73772
G1 X182.053 Y149.071 E148.83392
G1 X184.142 Y147.956 E148.93236
G1 X185.963 Y146.461 E149.03032
G1 X187.455 Y144.643 E149.1281
G1 X188.572 Y142.55 E149.22673
G1 X189.24 Y140.338 E149.3228
G1 X189.434 Y138.386 E149.40435
G1 X189.45 Y130.67 E149.72515
G1 X189.345 Y129.414 E149.77755
G1 X188.93 Y128.181 E149.83163
G1 X188.474 Y127.415 E149.8687
G1 X187.955 Y126.701 E149.9054
G1 X187.95 Y83.317 E151.70909
G1 X188.345 Y82.78 E151.73681
G1 X188.92 Y81.846 E151.78241
G1 X189.332 Y80.616 E151.83634
G1 X189.426 Y79.772 E151.87164
G1 X189.446 Y71.91 E152.19851
G1 X189.24 Y69.661 E152.2924
G1 X188.571 Y67.447 E152.38856
G1 X187.456 Y65.358 E152.48701
G1 X185.961 Y63.537 E152.58496
G1 X184.14 Y62.042 E152.68292
G1 X182.087 Y60.947 E152.77965
G1 X179.805 Y60.252 E152.87883
G1 X177.499 Y60.05 E152.97507
G1 X77.114 Y60.066 E157.14859
G1 X75.162 Y60.26 E157.23015
G1 X72.947 Y60.929 E157.32634
G1 X70.858 Y62.044 E157.42479
G1 X69.037 Y63.539 E157.52275
G0 F9000 X69.392 Y63.894
G1 F1800 X67.962 Y65.636 E157.61645
G1 X66.895 Y67.635 E157.71065
G1 X66.253 Y69.759 E157.8029
G1 X66.064 Y71.663 E157.88245
G1 X66.05 Y79.331 E158.20125
G1 X66.148 Y80.478 E158.24911
G1 X66.528 Y81.612 E158.29883
G1 X67.016 Y82.419 E158.33804
G1 X67.546 Y83.139 E158.37521
G1 X67.55 Y126.844 E160.19226
G1 X67.109 Y127.442 E160.22315
G1 X66.536 Y128.364 E160.26828
G1 X66.148 Y129.518 E160.3189
G1 X66.06 Y130.423 E160.3567
