;FLAVOR:Marlin
;TIME:5270
;Filament used: 5.25457m
;Layer height: 0.2
;MINX:61.56
;MINY:56.051
;MINZ:0.2
;MAXX:193.456
;MAXY:153.941
;MAXZ:15
;TARGET_MACHINE.NAME:Flying Bear Ghost 4S
;Generated with Cura_SteamEngine 5.6.0
M140 S60
M105
M190 S60
M104 S200
M105
M109 S200
M82 ;absolute extrusion mode
M220 S100 ;reset feedrate
M221 S100 ;reset flowrate
G90 ;use absolute coordinates
M82 ;absolute extrusion mode
G28 ;home
G1 Z2 F1500 ;raise z
G92 E0 ;reset extruder

G1 X75 Y5 F5000 ;start position
G1 Z0.28 F1500 ;lower z
G1 E4 F500 ;prime the filament
G1 X180 E10 F500 ;1st line
G1 Y5.4 F5000
G1 X75 E20 F500 ;2nd line
G1 Z2 F1500 ;raise z
G92 E0 ;reset extruder
G92 E0
G92 E0
G1 F1500 E-6.5
;LAYER_COUNT:75
;LAYER:0
M107
G0 F9000 X63.872 Y69.373 Z0.2
;TYPE:SKIRT
G1 F1500 E0
G1 F1800 X74.872 Y58.373 E0.64676
G1 X76.439 Y57.12 E0.73017
G1 X78.319 Y56.278 E0.81582
G1 X79.637 Y56.103 E0.87109
G1 X96.15 Y56.091 E1.55762
G1 X97.608 Y56.283 E1.61876
G1 X98.895 Y56.831 E1.67692
G1 X100.084 Y57.492 E1.73348
G1 X101.39 Y58.598 E1.80463
G1 X102.518 Y60.246 E1.88766
G1 X102.944 Y61.048 E1.92541
G1 X103.45 Y62.98 E2.00844
G1 X103.45 Y101.067 E3.59192
G1 X111.383 Y101.105 E3.92174
G1 X112.523 Y101.304 E3.96985
G1 X113.495 Y101.584 E4.0119
G1 X115.078 Y102.489 E4.08771
G1 X116.394 Y103.608 E4.15953
G1 X117.482 Y105.187 E4.23925
G1 X117.941 Y106.047 E4.27978
G1 X118.45 Y107.98 E4.36289
G1 X118.45 Y121.051 E4.90632
G1 X167.55 Y121.051 E6.94766
G1 X167.55 Y82.441 E8.55287
G1 X165.911 Y81.503 E8.63139
G1 X164.606 Y80.398 E8.70248
G1 X163.482 Y78.754 E8.78528
G1 X163.057 Y77.953 E8.82298
G1 X162.55 Y76.011 E8.90642
G1 X162.604 Y63.118 E9.44245
G1 X162.803 Y61.978 E9.49057
G1 X163.083 Y61.006 E9.53262
G1 X163.988 Y59.423 E9.60843
G1 X165.107 Y58.107 E9.68025
G1 X166.686 Y57.019 E9.75997
G1 X167.546 Y56.56 E9.8005
G1 X169.488 Y56.051 E9.88397
G1 X176.227 Y56.095 E10.16415
G1 X177.506 Y56.267 E10.2178
G1 X179.443 Y57.032 E10.30438
G1 X179.746 Y57.205 E10.31889
G1 X181.25 Y58.521 E10.40198
G1 X191.789 Y70.1 E11.05292
G1 X192.871 Y71.818 E11.13733
G1 X193.456 Y73.997 E11.23113
G1 X193.372 Y81.041 E11.52401
G1 X193.2 Y82.1 E11.56861
G1 X192.513 Y83.918 E11.64942
G1 X191.128 Y85.629 E11.74093
G1 X188.452 Y88.305 E11.89827
G1 X188.452 Y128.621 E13.57442
G1 X189.029 Y128.884 E13.60078
G1 X190.114 Y129.545 E13.6536
G1 X191.158 Y130.356 E13.70856
G1 X192.388 Y131.954 E13.7924
G1 X193.07 Y133.55 E13.86456
G1 X193.44 Y135.148 E13.93276
G1 X193.408 Y136.878 E14.00469
G1 X193.097 Y138.471 E14.07217
G1 X192.126 Y140.519 E14.1664
G1 X191.724 Y141.028 E14.19337
G1 X180.952 Y151.783 E14.82622
G1 X179.558 Y152.882 E14.90002
G1 X177.649 Y153.739 E14.98702
G1 X175.633 Y153.941 E15.07126
G1 X78.48 Y153.871 E19.11041
G1 X77.418 Y153.699 E19.15514
G1 X75.598 Y153.011 E19.23603
G1 X74.063 Y151.772 E19.31804
G1 X63.367 Y141.01 E19.94887
G1 X62.577 Y139.966 E20.0033
G1 X61.978 Y138.548 E20.0673
G1 X61.612 Y137.338 E20.11986
G1 X61.584 Y135.555 E20.19399
G1 X61.735 Y133.999 E20.25899
G1 X62.411 Y132.44 E20.32964
G1 X63.223 Y131.025 E20.39746
G1 X64.516 Y129.77 E20.47238
G1 X65.893 Y128.852 E20.54118
G1 X66.523 Y128.628 E20.56898
G1 X66.523 Y88.276 E22.24662
G1 X63.716 Y85.453 E22.41213
G1 X62.615 Y84.056 E22.48608
G1 X61.759 Y82.146 E22.5731
G1 X61.56 Y80.159 E22.65613
G1 X61.628 Y73.961 E22.91382
G1 X61.8 Y72.902 E22.95843
G1 X62.487 Y71.084 E23.03923
G1 X63.872 Y69.373 E23.13075
G0 F9000 X64.226 Y69.727
G1 F1800 X75.226 Y58.727 E23.77751
G1 X76.704 Y57.549 E23.85608
G1 X78.454 Y56.765 E23.93581
G1 X79.703 Y56.599 E23.98819
G1 X96.085 Y56.587 E24.66928
G1 X97.477 Y56.77 E24.72765
G1 X98.652 Y57.268 E24.78071
G1 X99.797 Y57.905 E24.83518
G1 X101.016 Y58.937 E24.90158
G1 X102.076 Y60.481 E24.97945
G1 X102.475 Y61.232 E25.0148
G1 X102.95 Y63.046 E25.09276
G1 X102.95 Y101.565 E26.6942
G1 X111.336 Y101.605 E27.04285
G1 X112.437 Y101.797 E27.08931
G1 X113.299 Y102.047 E27.12663
G1 X114.788 Y102.899 E27.19795
G1 X116.021 Y103.948 E27.26526
G1 X117.041 Y105.423 E27.33981
G1 X117.472 Y106.23 E27.37785
G1 X117.95 Y108.046 E27.45592
G1 X117.95 Y121.551 E28.0174
G1 X168.05 Y121.551 E30.10031
G1 X168.05 Y82.056 E31.74232
G1 X167.719 Y81.962 E31.75663
G1 X166.201 Y81.093 E31.82935
G1 X164.98 Y80.059 E31.89587
G1 X163.924 Y78.52 E31.97347
G1 X163.526 Y77.77 E32.00877
G1 X163.05 Y75.947 E32.0871
G1 X163.104 Y63.165 E32.61852
G1 X163.296 Y62.064 E32.66498
G1 X163.546 Y61.202 E32.7023
G1 X164.398 Y59.713 E32.77362
G1 X165.447 Y58.48 E32.84093
G1 X166.922 Y57.46 E32.91548
G1 X167.729 Y57.029 E32.95352
G1 X169.552 Y56.551 E33.03187
G1 X176.16 Y56.591 E33.30661
G1 X177.382 Y56.755 E33.35787
G1 X179.195 Y57.466 E33.43883
G1 X179.453 Y57.613 E33.45118
G1 X180.88 Y58.858 E33.52991
G1 X191.392 Y70.407 E34.17918
G1 X192.408 Y72.02 E34.25843
G1 X192.955 Y74.06 E34.34624
G1 X192.878 Y80.961 E34.63317
G1 X192.714 Y81.971 E34.67571
G1 X192.073 Y83.667 E34.75109
G1 X190.774 Y85.275 E34.83703
G1 X187.952 Y88.097 E35.00296
G1 X187.952 Y128.944 E36.70118
G1 X188.77 Y129.312 E36.73847
G1 X189.807 Y129.94 E36.78887
G1 X190.802 Y130.713 E36.84126
G1 X191.953 Y132.208 E36.9197
G1 X192.593 Y133.706 E36.98742
G1 X192.939 Y135.2 E37.05118
G1 X192.909 Y136.824 E37.11871
G1 X192.618 Y138.314 E37.18183
G1 X191.697 Y140.256 E37.27119
G1 X191.371 Y140.674 E37.29323
G1 X180.642 Y151.39 E37.92367
G1 X179.295 Y152.452 E37.99498
G1 X177.517 Y153.25 E38.07601
G1 X175.633 Y153.441 E38.15473
G1 X78.56 Y153.377 E42.19056
G1 X77.547 Y153.213 E42.23323
G1 X75.849 Y152.571 E42.3087
G1 X74.418 Y151.419 E42.38507
G1 X63.766 Y140.708 E43.01311
G1 X63.014 Y139.714 E43.06493
G1 X62.439 Y138.353 E43.12635
G1 X62.111 Y137.26 E43.1738
G1 X62.082 Y135.603 E43.2427
G1 X62.225 Y134.126 E43.30439
G1 X62.87 Y132.639 E43.37178
G1 X63.62 Y131.336 E43.43429
G1 X64.832 Y130.16 E43.5045
G1 X66.119 Y129.302 E43.5688
G1 X67.023 Y128.981 E43.60869
G1 X67.023 Y88.07 E45.30957
G1 X64.109 Y85.143 E45.48128
G1 X63.044 Y83.792 E45.55281
G1 X62.249 Y82.018 E45.63363
G1 X62.058 Y80.109 E45.71339
G1 X62.122 Y74.041 E45.96568
G1 X62.286 Y73.031 E46.00822
G1 X62.927 Y71.335 E46.0836
G1 X64.226 Y69.727 E46.16954
G0 F9000 X64.58 Y70.081
G1 F1800 X75.58 Y59.081 E46.8163
G1 X76.969 Y57.978 E46.89004
G1 X78.589 Y57.252 E46.96385
G1 X79.769 Y57.095 E47.01334
G1 X96.02 Y57.083 E47.68898
G1 X97.345 Y57.257 E47.74454
G1 X98.409 Y57.705 E47.79254
G1 X99.51 Y58.318 E47.84493
G1 X100.641 Y59.275 E47.90652
G1 X101.634 Y60.716 E47.97928
G1 X102.006 Y61.416 E48.01224
G1 X102.45 Y63.112 E48.08512
G1 X102.45 Y102.063 E49.70452
G1 X111.289 Y102.105 E50.07201
G1 X112.351 Y102.29 E50.11682
G1 X113.104 Y102.511 E50.14945
G1 X114.498 Y103.309 E50.21623
G1 X115.647 Y104.286 E50.27893
G1 X116.6 Y105.659 E50.34842
G1 X117.003 Y106.413 E50.38396
G1 X117.45 Y108.112 E50.457
G1 X117.45 Y122.051 E51.03652
G1 X168.55 Y122.051 E53.16101
G1 X168.55 Y81.678 E54.83953
G1 X167.914 Y81.497 E54.86702
G1 X166.491 Y80.683 E54.93517
G1 X165.353 Y79.72 E54.99715
G1 X164.366 Y78.286 E55.06953
G1 X163.995 Y77.587 E55.10243
G1 X163.55 Y75.883 E55.17565
G1 X163.604 Y63.212 E55.70245
G1 X163.789 Y62.15 E55.74727
G1 X164.01 Y61.397 E55.7799
G1 X164.808 Y60.003 E55.84668
G1 X165.785 Y58.854 E55.90938
G1 X167.158 Y57.901 E55.97887
G1 X167.912 Y57.498 E56.01441
G1 X169.616 Y57.051 E56.08765
G1 X176.094 Y57.087 E56.35698
G1 X177.258 Y57.243 E56.40581
G1 X179.012 Y57.931 E56.48414
G1 X179.157 Y58.019 E56.49119
G1 X180.551 Y59.235 E56.5681
G1 X190.991 Y70.709 E57.21305
G1 X191.945 Y72.223 E57.28744
G1 X192.454 Y74.123 E57.36922
G1 X192.384 Y80.881 E57.6502
G1 X192.228 Y81.842 E57.69068
G1 X191.633 Y83.416 E57.76064
G1 X190.42 Y84.921 E57.841
G1 X187.452 Y87.889 E58.01551
G1 X187.452 Y129.269 E59.73589
G1 X188.512 Y129.741 E59.78413
G1 X189.5 Y130.335 E59.83206
G1 X190.446 Y131.07 E59.88187
G1 X191.518 Y132.462 E59.95491
G1 X192.116 Y133.862 E60.0182
G1 X192.438 Y135.252 E60.07752
G1 X192.41 Y136.77 E60.14065
G1 X192.139 Y138.157 E60.1994
G1 X191.269 Y139.992 E60.28383
G1 X191.018 Y140.32 E60.301
G1 X180.332 Y150.997 E60.92903
G1 X179.032 Y152.022 E60.99786
G1 X177.385 Y152.761 E61.07291
G1 X175.633 Y152.941 E61.14614
G1 X78.64 Y152.883 E65.17864
G1 X77.676 Y152.727 E65.21924
G1 X76.1 Y152.131 E65.28929
G1 X74.773 Y151.066 E65.36003
G1 X64.121 Y140.355 E65.98806
G1 X63.452 Y139.464 E66.03438
G1 X62.9 Y138.158 E66.09333
G1 X62.61 Y137.183 E66.13562
G1 X62.58 Y135.651 E66.19933
G1 X62.715 Y134.253 E66.25772
G1 X63.329 Y132.838 E66.32185
G1 X64.018 Y131.646 E66.37909
G1 X65.148 Y130.55 E66.44454
G1 X66.345 Y129.752 E66.50435
G1 X67.523 Y129.334 E66.55632
G1 X67.523 Y87.863 E68.28048
G1 X64.502 Y84.833 E68.45837
G1 X63.474 Y83.529 E68.5274
G1 X62.738 Y81.887 E68.60221
G1 X62.558 Y80.114 E68.67631
G1 X62.616 Y74.121 E68.92548
G1 X62.772 Y73.16 E68.96595
G1 X63.367 Y71.586 E69.03591
G1 X64.58 Y70.081 E69.11628
G0 F9000 X64.934 Y70.435
G1 F1800 X75.934 Y59.435 E69.76303
G1 X77.231 Y58.408 E69.83182
G1 X78.724 Y57.739 E69.89983
G1 X79.835 Y57.591 E69.94643
G1 X95.955 Y57.579 E70.61662
G1 X97.213 Y57.744 E70.66937
G1 X98.215 Y58.166 E70.71458
G1 X99.222 Y58.729 E70.76254
G1 X100.267 Y59.614 E70.81947
G1 X101.192 Y60.95 E70.88703
G1 X101.536 Y61.598 E70.91753
G1 X101.95 Y63.178 E70.98544
G1 X101.95 Y102.561 E72.62279
G1 X111.244 Y102.605 E73.0092
G1 X112.21 Y102.77 E73.04994
G1 X112.906 Y102.974 E73.0801
G1 X114.21 Y103.721 E73.14257
G1 X115.274 Y104.625 E73.20062
G1 X116.159 Y105.895 E73.26498
G1 X116.534 Y106.596 E73.29803
G1 X116.95 Y108.178 E73.36604
G1 X116.95 Y122.551 E73.9636
G1 X169.05 Y122.551 E76.12966
G1 X169.05 Y81.3 E77.84468
G1 X168.109 Y81.033 E77.88535
G1 X166.777 Y80.271 E77.94915
G1 X165.729 Y79.383 E78.00626
G1 X164.808 Y78.052 E78.07355
G1 X164.464 Y77.404 E78.10405
G1 X164.05 Y75.819 E78.17216
G1 X164.104 Y63.257 E78.69443
G1 X164.269 Y62.291 E78.73517
G1 X164.473 Y61.595 E78.76533
G1 X165.22 Y60.291 E78.82781
G1 X166.124 Y59.227 E78.88585
G1 X167.394 Y58.342 E78.95021
G1 X168.095 Y57.967 E78.98326
G1 X169.681 Y57.551 E79.05143
G1 X176.028 Y57.583 E79.31531
G1 X177.134 Y57.731 E79.3617
G1 X178.829 Y58.396 E79.4374
G1 X180.181 Y59.571 E79.51187
G1 X190.59 Y71.011 E80.15491
G1 X191.482 Y72.426 E80.22445
G1 X191.953 Y74.186 E80.3002
G1 X191.89 Y80.801 E80.57523
G1 X191.742 Y81.713 E80.61364
G1 X191.193 Y83.165 E80.67818
G1 X190.066 Y84.567 E80.75296
G1 X186.952 Y87.681 E80.93606
G1 X186.952 Y129.714 E82.68358
G1 X187.348 Y129.771 E82.70022
G1 X188.254 Y130.17 E82.74138
G1 X189.242 Y130.764 E82.7893
G1 X190.09 Y131.426 E82.83403
G1 X191.083 Y132.716 E82.90171
G1 X191.639 Y134.018 E82.96057
G1 X191.937 Y135.304 E83.01545
G1 X191.911 Y136.716 E83.07417
G1 X191.66 Y138 E83.12856
G1 X190.839 Y139.732 E83.20825
G1 X190.665 Y139.966 E83.22037
G1 X180.022 Y150.604 E83.84599
G1 X178.769 Y151.592 E83.91233
G1 X177.253 Y152.272 E83.98141
G1 X175.633 Y152.441 E84.04913
G1 X78.72 Y152.389 E88.0783
G1 X77.805 Y152.241 E88.11684
G1 X76.35 Y151.691 E88.18151
G1 X75.086 Y150.676 E88.24891
G1 X64.521 Y140.055 E88.87174
G1 X63.89 Y139.215 E88.91542
G1 X63.361 Y137.963 E88.97192
G1 X63.109 Y137.105 E89.0091
G1 X63.078 Y135.699 E89.06757
G1 X63.205 Y134.38 E89.12266
G1 X63.788 Y133.037 E89.18353
G1 X64.415 Y131.957 E89.23545
G1 X65.464 Y130.94 E89.29619
G1 X66.571 Y130.202 E89.35151
G1 X68.023 Y129.687 E89.41556
G1 X68.023 Y87.656 E91.16301
G1 X64.895 Y84.523 E91.34707
G1 X63.903 Y83.265 E91.41367
G1 X63.227 Y81.756 E91.48242
G1 X63.058 Y80.118 E91.55088
G1 X63.11 Y74.201 E91.79689
G1 X63.258 Y73.289 E91.8353
G1 X63.807 Y71.837 E91.89984
G1 X64.934 Y70.435 E91.97463
G0 F9000 X65.288 Y70.789
G1 F1800 X76.288 Y59.789 E92.62138
G1 X77.493 Y58.838 E92.6852
G1 X78.859 Y58.226 E92.74744
G1 X79.901 Y58.087 E92.79114
G1 X95.89 Y58.075 E93.45589
G1 X97.084 Y58.232 E93.50595
G1 X97.971 Y58.602 E93.54591
G1 X98.933 Y59.14 E93.59174
G1 X99.894 Y59.953 E93.64407
G1 X100.75 Y61.184 E93.70641
G1 X101.066 Y61.78 E93.73445
G1 X101.45 Y63.244 E93.79738
G1 X101.45 Y103.059 E95.45269
G1 X111.202 Y103.105 E95.85814
G1 X112.069 Y103.25 E95.89468
G1 X112.71 Y103.438 E95.92246
G1 X113.92 Y104.131 E95.98043
G1 X114.9 Y104.963 E96.03388
G1 X115.718 Y106.131 E96.09316
G1 X116.065 Y106.779 E96.12372
G1 X116.45 Y108.244 E96.1867
G1 X116.45 Y123.051 E96.8023
G1 X169.55 Y123.051 E99.00994
G1 X169.55 Y80.857 E100.76416
G1 X169.027 Y80.774 E100.78618
G1 X168.304 Y80.569 E100.81742
G1 X167.067 Y79.861 E100.87668
G1 X166.102 Y79.044 E100.92925
G1 X165.25 Y77.818 E100.99132
G1 X164.934 Y77.222 E101.01936
G1 X164.55 Y75.754 E101.08245
G1 X164.604 Y63.299 E101.60027
G1 X164.749 Y62.432 E101.63682
G1 X164.937 Y61.791 E101.66459
G1 X165.63 Y60.581 E101.72256
G1 X166.462 Y59.601 E101.77601
G1 X167.63 Y58.783 E101.8353
G1 X168.278 Y58.436 E101.86586
G1 X169.746 Y58.051 E101.92895
G1 X175.962 Y58.079 E102.18739
G1 X177.007 Y58.219 E102.23122
G1 X178.568 Y58.831 E102.30093
G1 X179.811 Y59.908 E102.36931
G1 X190.193 Y71.318 E103.01066
G1 X191.018 Y72.628 E103.07503
G1 X191.452 Y74.249 E103.14479
G1 X191.396 Y80.721 E103.41388
G1 X191.256 Y81.584 E103.45023
G1 X190.753 Y82.914 E103.50934
G1 X189.712 Y84.213 E103.57855
G1 X186.452 Y87.473 E103.77023
G1 X186.452 Y130.148 E105.54445
G1 X187.21 Y130.256 E105.57628
G1 X187.996 Y130.599 E105.61193
G1 X188.984 Y131.193 E105.65986
G1 X189.733 Y131.781 E105.69945
G1 X190.648 Y132.97 E105.76183
G1 X191.162 Y134.174 E105.81625
G1 X191.436 Y135.356 E105.8667
G1 X191.412 Y136.662 E105.92101
G1 X191.181 Y137.843 E105.97104
G1 X190.409 Y139.472 E106.04598
G1 X190.311 Y139.612 E106.05309
G1 X179.712 Y150.211 E106.67627
G1 X178.506 Y151.162 E106.74012
G1 X177.121 Y151.783 E106.80323
G1 X175.633 Y151.941 E106.86544
G1 X78.8 Y151.895 E110.89129
G1 X77.934 Y151.755 E110.92776
G1 X76.6 Y151.251 E110.98705
G1 X75.399 Y150.286 E111.0511
G1 X64.921 Y139.755 E111.66873
G1 X64.327 Y138.964 E111.70985
G1 X63.841 Y137.822 E111.76145
G1 X63.608 Y137.027 E111.79589
G1 X63.576 Y135.747 E111.84913
G1 X63.696 Y134.505 E111.901
G1 X64.22 Y133.288 E111.95609
G1 X64.812 Y132.269 E112.00509
G1 X65.78 Y131.33 E112.06116
G1 X66.797 Y130.652 E112.11197
G1 X68.523 Y130.04 E112.18811
G1 X68.523 Y87.448 E113.95888
G1 X65.288 Y84.213 E114.14908
G1 X64.332 Y83.001 E114.21326
G1 X63.716 Y81.625 E114.27594
G1 X63.558 Y80.122 E114.33877
G1 X63.604 Y74.281 E114.58162
G1 X63.744 Y73.418 E114.61797
G1 X64.247 Y72.088 E114.67709
G1 X65.288 Y70.789 E114.74629
G0 F9000 X65.642 Y71.143
G1 F1800 X76.642 Y60.143 E115.39305
G1 X77.755 Y59.268 E115.45191
G1 X78.994 Y58.713 E115.50836
G1 X79.967 Y58.583 E115.54917
G1 X95.825 Y58.571 E116.20847
G1 X96.954 Y58.719 E116.25581
G1 X97.727 Y59.038 E116.29057
G1 X98.644 Y59.551 E116.33426
G1 X99.522 Y60.293 E116.38205
G1 X100.308 Y61.418 E116.43911
G1 X100.596 Y61.962 E116.4647
G1 X100.95 Y63.31 E116.52264
G1 X100.95 Y103.557 E118.19592
G1 X111.122 Y103.599 E118.61882
G1 X111.928 Y103.73 E118.65277
G1 X112.512 Y103.901 E118.67807
G1 X113.635 Y104.545 E118.73189
G1 X114.525 Y105.3 E118.78042
G1 X115.308 Y106.418 E118.83716
G1 X115.596 Y106.962 E118.86275
G1 X115.95 Y108.31 E118.9207
G1 X115.95 Y123.551 E119.55434
G1 X170.05 Y123.551 E121.80356
G1 X170.05 Y80.425 E123.59653
G1 X169.164 Y80.293 E123.63377
G1 X168.498 Y80.104 E123.66256
G1 X167.357 Y79.451 E123.71721
G1 X166.476 Y78.705 E123.76521
G1 X165.692 Y77.584 E123.82208
G1 X165.404 Y77.04 E123.84767
G1 X165.05 Y75.689 E123.90574
G1 X165.098 Y63.379 E124.41753
G1 X165.229 Y62.573 E124.45148
G1 X165.4 Y61.989 E124.47678
G1 X166.044 Y60.866 E124.5306
G1 X166.799 Y59.976 E124.57912
G1 X167.917 Y59.193 E124.63587
G1 X168.461 Y58.905 E124.66146
G1 X169.811 Y58.551 E124.71948
G1 X175.896 Y58.575 E124.97247
G1 X176.881 Y58.707 E125.01379
G1 X178.307 Y59.266 E125.07747
G1 X179.441 Y60.245 E125.13975
G1 X189.794 Y71.623 E125.77931
G1 X190.555 Y72.831 E125.83867
G1 X190.951 Y74.312 E125.90241
G1 X190.902 Y80.641 E126.16554
G1 X190.77 Y81.455 E126.19983
G1 X190.313 Y82.663 E126.25352
G1 X189.358 Y83.859 E126.31716
G1 X185.952 Y87.265 E126.51742
G1 X185.952 Y130.582 E128.31833
G1 X187.073 Y130.742 E128.3654
G1 X187.738 Y131.028 E128.3955
